X:123
T: Bunte Blumen
N: A0144
O: Europa, Mitteleuropa, Deutschland
N: "Nicht unpassend waere die Weise vom "alten Mai"(s. geistl. Lieder)
N: zu diesem Blumen und Mailust-Liede. Ich habe sie deshalb in modernen
N: Noten und im Tanzrhythmus oben beigesetzt."
R: Romanze, Ballade, Lied
M: 6/4
L: 1/4
K: A
A | A2AA2G | E3B2
c | B2AG2F | E3-E2
A | A2AA2G | E3B2
c | B2AG2F | E3-E2
E | A2AG2E | A3B2
B | B2Bc2c | B2AB2
B | e2dc2B | A3d2
B | c2BA2G | A3-A2

@@@ Tune index: 123
